!!!OTL: Koenig und Marquise.
!!!OTL-incipit: Es reist' ein Koenig nach Paris,
!!!ARE: Europa, Mitteleuropa, Deutschland / France, Lothringen, Saarburg,
!!    Walscheid
!!!YOR: 2, S. 24
!!    1936 aufgezeichnet
!!!SCT: Q0035
!!!YEM: Copyright 1995, estate of Helmut Schaffrath.
**kern	**text
*ICvox	*
!! Irregular meter.
*MX	*
*k[f#c#]	*
*D:	*
!LO:TX:a:t=Ruhig erzählend.	!
{8f#	1._Es
8f#	reiſt'
8e	ein
=1:	=1:
4d	Kö-
8d	-nig
8eL	nach
8f#J	.
8a	Pa-
=2:	=2:
4f#	-ris,
8r}	.
{8a	es
8f#	reiſt'
8e	ein
=3:	=3:
4d	Kö-
8d	-nig
8eL	nach
8f#J	.
8a	Pa-
=4:	=4:
4f#	-ris,
8r}	.
{8e	um
=5:	=5:
16f#	ſchö-
16f#	-ne
8e	Jung-
8f#	-fraun
16g	ʒu
16g	be-
=6:	=6:
4a	-ſchau-
4f#	-en.
8r}	.
{8a	Er
8f#	fand
8e	ja
=7:	=7:
4d	kei-
8d	-ne
8d	nach
8e	ſei-
8f#	-ner
16gL	Plai-
16f#J	.
=8:	=8:
4e}	-ſier
{16d	als
16e	das
8f#L	Weib
8eJ	.
8d	vom
=9:	=9:
8f#L	ſchö-
8aJ	.
8f#	-nen
8e	Mar-
=10:	=10:
4.d}	-kier.
==	==
!!!AGN: Ballade, Frauenraub
!! Kleinere Strophenvariante abgedruckt.
!!!ONB: ESAC (Essen Associative Code) Database: BALLADE
!!!AMT: irregular
!!!AIN: vox
!!!EED: Helmut Schaffrath
!!!EEV: 1.0
!!@@COMMENT:"A141371: Mel. u. 1. Str. : 1936 in Walſcheid (Lothringen) aufgeʒeichnet.
!!Weiterer Text: Alteres hſl. Ldb. aus dem gleichen Ort."
!!@@END:
!!!source: Deutsche Volkslieder mit ihren Melodien. Herausgegeben vom Deutschen Volksliedarchiv. Zweiter Band Balladen. Berlin 1939.
!!!page: 24
!!!ENC: Anna Maria Matuszewska
!!!EEV: 2025/02/14
*-	*-
